docs/css/image/navicons/lightbulb.svg

<svg height="24" viewBox="0 0 24 24" width="24" xmlns="http://www.w3.org/2000/svg"><path d="m12 5.99999997c-3.30000002 0-6.00000003 2.70000001-6.00000003 6.00000003 0 2 1 3.8 2.50000001 4.8l.2.6c.2.9 1.00000001 1.5 1.90000002 1.5h2.9c.9 0 1.7-.6 1.9-1.5l.2-.6c1.4-1 2.4-2.8 2.4-4.8 0-3.30000002-2.7-6.00000003-6-6.00000003zm2.4 9.20000003c-.4.3-.6.7-.8 1.1l-.2.7h-2.8l-.2-.6c-.1-.5-.40000002-.9-.80000001-1.1-1.00000001-.8-1.60000001-2-1.60000001-3.3 0-2.20000001 1.80000001-4.00000002 4.00000002-4.00000002 2.2 0 4 1.80000001 4 4.00000002 0 1.3-.6 2.5-1.6 3.2zm-2.4 6.8c1.4.0000001 2.7-.8 3-2h-6.00000002c.30000001 1.1 1.60000002 2.0000001 3.00000002 2zm-1-20.00000005h2v2h-2zm6.6618317 1.69676797 1.5320889 1.28557522-1.2855752 1.5320889-1.5320889-1.28557523zm4.0125977 5.58194254.3472964 1.96961554-1.9696156.3472963-.3472963-1.96961549zm-.5141753 6.85526414-1 1.7320508-1.7320508-1 1-1.7320508zm-17.32050818 1.7320508-1-1.7320508 1.73205081-1 1.00000001 1.7320508zm-1.86147168-6.6176994.34729636-1.96961554 1.96961552.34729635-.34729636 1.96961549zm2.82780518-6.26598286 1.5320889-1.28557522 1.28557522 1.53208889-1.53208889 1.28557523z" fill="#590b94" fill-rule="evenodd"/></svg>

<svg xmlns="http://www.w3.org/2000/svg" xmlns:xlink="http://www.w3.org/1999/xlink" width="24" height="24" viewBox="0 0 24 24">
  <defs>
    <path id="lightbulb-a" d="M12,5.99999997 C8.69999998,5.99999997 5.99999997,8.69999998 5.99999997,12 C5.99999997,14 6.99999997,15.8 8.49999998,16.8 L8.69999998,17.4 C8.89999998,18.3 9.69999999,18.9 10.6,18.9 L13.5,18.9 C14.4,18.9 15.2,18.3 15.4,17.4 L15.6,16.8 C17,15.8 18,14 18,12 C18,8.69999998 15.3,5.99999997 12,5.99999997 Z M14.4,15.2 C14,15.5 13.8,15.9 13.6,16.3 L13.4,17 L10.6,17 L10.4,16.4 C10.3,15.9 9.99999998,15.5 9.59999999,15.3 C8.59999998,14.5 7.99999998,13.3 7.99999998,12 C7.99999998,9.79999999 9.79999999,7.99999998 12,7.99999998 C14.2,7.99999998 16,9.79999999 16,12 C16,13.3 15.4,14.5 14.4,15.2 Z M12,22 C13.4,22.0000001 14.7,21.2 15,20 L8.99999998,20 C9.29999999,21.1 10.6,22.0000001 12,22 Z M11,1.99999995 L13,1.99999995 L13,3.99999995 L11,3.99999995 L11,1.99999995 Z M17.6618317,3.69676792 L19.1939206,4.98234314 L17.9083454,6.51443204 L16.3762565,5.22885681 L17.6618317,3.69676792 Z M21.6744294,9.27871046 L22.0217258,11.248326 L20.0521102,11.5956223 L19.7048139,9.62600681 L21.6744294,9.27871046 Z M21.1602541,16.1339746 L20.1602541,17.8660254 L18.4282033,16.8660254 L19.4282033,15.1339746 L21.1602541,16.1339746 Z M3.83974592,17.8660254 L2.83974592,16.1339746 L4.57179673,15.1339746 L5.57179674,16.8660254 L3.83974592,17.8660254 Z M1.97827424,11.248326 L2.3255706,9.27871046 L4.29518612,9.62600681 L3.94788976,11.5956223 L1.97827424,11.248326 Z M4.80607942,4.98234314 L6.33816832,3.69676792 L7.62374354,5.22885681 L6.09165465,6.51443204 L4.80607942,4.98234314 Z"/>
  </defs>
  <use fill="#590b94" fill-rule="evenodd" xlink:href="#lightbulb-a"/>
</svg>
